X:1
T:Seguimi pur nel mond
T:Domenico Micheli
T:Seguimi pur nel mondo
T:Canzon, terza stanza
C:Domenico Micheli
%%score [ 1 2 3 ]
L:1/8
Q:1/4=80
M:4/2
K:C
V:1 treble nm="Soprano" snm="S"
V:2 alto1 nm="Alto" snm="A"
V:3 alto nm="Tenor" snm="T"
V:1
 z16 |[K:Bb] z16 | B6 B2 c2 e4 d2 | c4 B4 A2 B4 A2 | G8 A2 F4 G2- | G2 A4 B4 c2 F4 | G6 B4 c2 B4- | %7
w: ||Se- gui- mi pur nel|mon- do e ne l'in-|fer- no, Che sa-|* no e sciolt' an- dro-|ne in vi- ta e'n mor-|
 B4 A4 d8 | c6 c2 d2 e4 dc | de f4 =e2 f4 z2 c2 | f2 d2 =e2 f2 c4 d4 | B2 A2 G4 A8 | %12
w: * te, Co-|tan- to e du- ro e _ _|_ _ for- * te, Lo|scu- do e quel- la man che|spez- zo'l no- do,|
 F3 F B2 G2 c2 B4 A2 | GG c3 =B/A/ B2 c4 z4 | c4 f4 e4 d4 | c4 d2 A2 BG c3 =B/A/ B2 | c8 z4 c4 | %17
w: Chiu- se son del pen- sier l'an-|ti- che por- * * * te,|Un mu- ro d'i-|rae di dis- de- gno e- ter- * * *|no, Cin-|
 c2 A2 B3 A G2 F2 G4 | F4 z2 B2 G2 A2 B2 F2 | B8 c2 e4 d2 | c8 B4 z2 e2- | e2 d3 c c4 B2 c2 G2 | %22
w: ge il mio pett' _ _ in- ter-|no, On- de te- mer non|poss' in al- cun|mo- do, Ma|_ s'in- vi- do del bel c'hog-|
 G2 A2 F4 GA B3 A/G/ A2 | B2 d4 e3 cdc c4 | d2 e3 ddc/B/ c2 d2 c4 | d8 z2 c4 A2 | =B4 c6 d4 cB | %27
w: gi mi go- * * * * * *|do, Do- narm' in pred' a mia|ne- mi- * * * * * ca vuo-|i, E ven-|di- car la fu- *|
 AGA=B c4 d2 c3 c !courtesy!=B2 | c4 z4 c3 c d2 =e2 | f2 c2 d2 c2 B2 A2 G2 G2 | A4 z2 F2 B2 A2 G4 | %31
w: * * * * * ga e l'ar- di- men-|to, D'es- ser suo mi|con- ten- to, Se fai quant' io di-|ro ma se non puo-|
 AB c4 B2 c8 | z2 f4 e2 c2 e2 f2 e2- | e2 d2 c8 =B4 | c8 A4 z2 c2- | c2 A2 d4 =B2 c2 G2 A2 | %36
w: * * * * i,|Tor- nat' in die- tro am- bi|_ po- sar po-|tre- mo, Tu|_ vit- to- ria, Tu vit- to-|
 F2 B2 B4 e8 | d4 c2 Bc d2 B2 A4 | G4 z2 =B4 B2 c4 | G8 _A8 | G8 B4 c4- | c4 B6 AG A4 | G8 A8- | %43
w: ria non sper' io|duol non _ _ _ _ te-|mo, Tu vit- to-|ria non|sper' io duol|_ non _ _ _|te- mo.|
 A16 |] %44
w: _|
V:2
 z16 |[K:Bb][K:treble] F6 F2 G2 B4 A2 | G4 F2 G4 EFGA B2- | B2 A2 G2 F3 EDCDE F2- | %4
w: |Se- gui- mi pur nel|mon- do e ne l'in- * * * *|* * fer- * * * * * * *|
 F2 =ED E4 F4 B,4 | C4 D4 E2 C2 D4- | D2 E2 E2 F2 G8- | G4 ^F4 z2 B4 A2- | A2 G2 A2 F2 GFGA B3 A | %9
w: * * * * no, Che|sa- no e sciolt' an- dro-|* ne in vi- ta e'n mor-|* te, Co- tan-|* to e du- ro e for- * * * * *|
 G2 F2 G4 F2 B2 G2 A2 | B4 G2 A4 G2 A2 B2 | G2 F3 =E/D/ E2 F2 C3 C F2- | F2 D4 E2 C2 DCDE F2- | %13
w: * * * te, Lo scu- do e|quel- la man che spez- zo'l|no- * * * * do, Chiu- se son|_ del pen- sier l'an- * * * ti-|
 F2 E2 D4 C2 G2 c3 B | A2 G2 A2 B2 c2 B4 AG | A2 G3 F/E/ F2 G2 E2 D4 | C4 z2 F2 F2 D2 =E4 | %17
w: * che por- te, Un mu- *|* ro d'i- rae di dis- * *|de- gno e- * * * ter- * *|no, Cin- ge il mio pett'|
 F4 DEFDEC F4 =E2 | z2 F2 D4 =E2 F4 D2 | E2 G4 F4 E2 G2 F2- | F2 A2 A3 G G2 F2 G4 | %21
w: in- ter- * * * * * * no,|On- de te- mer non|poss' in al- cun mo- do,|_ Ma s'in- vi- do del bel,|
 B4 A3 G A2 F2 G4 | =E2 F4 D2 _E3 D C4 | B,2 F4 G3 ABG A4 | B2 B3 G B4 AG A4 | B4 z2 F2 D2 =E2 F4 | %26
w: Ma s'in- vi- do del bel|c'hog- gi mi go- * *|do, Do- narm' in pred' a mia|ne- mi- ca vuo- * * *|i, E ven- di- car|
 G8 F2 D2 G4 | ^F4 G8 A2 G2- | GG A2 =B2 c4 A3 _B c2 | F2 A2 B2 G4 F3 =E/D/ E2 | %30
w: la fu- ga e l'ar-|di- men- to, D'es-|* ser suo mi con- ten- * *|to, Se fai quant' io _ _ di-|
 F2 C2 D2 B,CDE F4 =E2 | F3 E D4 C4 z2 G2- | G2 A4 c2 A2 G2 B2 c2 | G4 _A4 G8 | C2 F4 =E2 F4 C4 | %35
w: ro ma se non _ _ _ _ _|puo- * * i, Tor-|* nat' in die- tro am- bi po-|sar po- tre-|mo, Tu vit- to- ria,|
 z2 F4 D2 G4 =E2 F2- | F2 D2 G4 G2 B2 c2 B2- | B2 A4 G4 ^F=E F4 | G8 D4 z2 E2- | %39
w: Tu vit- to- ria, Tu|_ vit- to- ria non sper' io|_ duol non _ _ _|te- mo, Tu|
 E2 E2 D2 =E2 F4 _E4- | E4 D4 F8 | G8 C4 F4- | F2 =ED E4 F8- | F16 |] %44
w: _ vit- to- ria non sper'|_ io duol|non te- *|* * * * mo.|_|
V:3
 z16 |[K:Bb][K:treble-8] z4 B6 B2 c4 | e4 d2 edcB c4 B2 | f3 c e2 d3 cBA G2 F2 | c8 F4 z4 | %5
w: |Se- gui- mi|pur nel mon- * * * * do e|ne _ _ l'in- * * * * *|fer- no,|
 z2 F4 G4 A2 B4 | G2 c4 B2 e2 c2 e4 | d8 z2 g4 f2- | f2 =e2 f2 d2 c4 B4 | z4 c4 f2 d2 =e2 f2 | %10
w: Che sa- no e sciolt'|an- dro- ne in vi- ta e'n mor-|te, Co- tan-|* to e du- ro e for- te,|Lo scu- do e quel- la|
 B4 c2 f3 f e2 d2 B2 | e2 f2 c4 F4 z2 F2- | FF B2 G2 c2 A2 B2 G2 F2 | c4 G4 z2 c4 f2- | %14
w: man che spez- zo'l no- do, che|spez- zo'l no- do, Chiu-|* se son del pen- sier l'an- ti- che|por- te, Un mu-|
 f2 e2 d4 c2 g3 g f2- | f2 e2 d4 G8 | z2 c2 c2 A2 B4 c4 | F4 B4 z4 c4 | A2 B4 G4 F2 B4 | %19
w: * ro d'i- rae di dis- de-|* gno e- ter- no,|Cin- ge il mio pett' in-|ter- no, On-|de te- mer non poss'|
 E2 e4 d2 c4 B4 | z2 f2 f3 c e2 d2 c4 | g4 f3 =e f2 d2 c4 | z2 F2 F2 B2 E4 F4 | z2 B4 e3 fBc f4 | %24
w: in al- cun mo- do,|Ma s'in- vi- do del bel,|Ma s'in- vi- do del bel|c'hog- gi mi go- do,|Do- narm' in pred' a mia|
 B2 e4 g2 f8 | B8 z8 | z4 c4 A2 =B4 c2 | d4 c3 c =B2 c2 F2 G2 | c3 c d2 =e2 f4 d2 c2 | %29
w: ne- mi- ca vuo-|i,|E ven- di- car|la fu- ga e l'ar- di- men- to,|D'es- ser suo mi con- ten- to,|
 z2 f2 B2 c2 e2 f2 c4 | z2 F2 B3 A G2 F2 c4 | F4 z2 f4 e4 c2 | e2 f2 d2 c2 f2 e2 d2 c2 | %33
w: Se fai quant' io di- ro|ma se _ _ non puo-|i, Tor- nat' in|die- tro am- bi po- sar po- tre- mo,|
 z4 F4 c4 G4 | A2 F2 c4 F2 f4 =e2 | f4 B4 z2 c4 F2 | B4 E2 e2 e4 c2 g2- | g2 f2 e4 d8 | %38
w: am- bi po-|sar po- tre- mo, Tu vit-|to- ria, Tu vit-|to- ria non sper' io duol|_ non te- mo,|
 z4 G6 G2 c4- | c4 =B2 c2 F4 c4- | c4 B6 AG A4 | G8 F8 | c8 F8- | F16 |] %44
w: Tu vit- to-|* ria non sper' io|_ duol _ _ _|non te-|* mo.|_|

